X:1
T:Infidelita d'Amante- Amor il mio btormento
T:Giovanni Stefani
T:Source : Affetti amorosi-Canzonette ad una voce sola---Venetia---A.Vincenti---1621. Editor : André Vierendeels (12/11/15-.
T:Notes : Original clefs : C4, F4 Editorial accidentals above the staff Alfabetto et intavolatura per chitarra Spagnola Figures above the BC are notated in original print Terza impressione (First print : 1618)
T:Amor il mio tormento- Infelicita d'amante
C:Giovanni Stefani
%%score 1 { ( 2 4 ) | 3 }
L:1/8
Q:1/4=90
M:4/4
K:F
V:1 treble-8 nm="Tenor" snm="T"
V:2 treble nm="BC" snm="BC"
V:4 treble 
V:3 bass 
V:1
 z2 c2 c4 | cccc c4 | G4 A4 | B3 A G4 | z2 BB B2 Bc | d4 B4- | B2 AA A4 | G8 | B2 AG G2 G2 | %9
w: A- mor|il mio tor- men- to'e|la mia|pe- * na,|con chi guer- ra mi|fa pa-|* ce non tro-|va,|il pian- to'e va- no|
w: Mo- stro'in|dar- no'il mio ma- le'a|chi nol|ve- * de,|e per do- glia mi|strug- go'an-|* ti- ca'e no-|va:|e s'io dis- co- pro|
w: co- stei|d'i- ra si pa- sce,|io mar-|ti- * re,|el- la d'o- dio, io|fe- d'ed|_ è co- stan-|te|el- la nell' es- ser|
w: Tri- on-|fi el- la d'A- mo-|re'io tri-|on- fan- te,|es- ser vo- glio di|mor- te'in-|_ lei s'am- mi-|re,|in- lei s'am- mi- re,|
 z GGG B3 G | F4 F4 | z FFF F3 G | _E2 E4 ED | D8 | C8 |] %15
w: e'l so- spi- rar non|gio- va,|per ot- te- ner pie-|ta non che mer-|ce-|de.|
w: A- mo- re'a chi nol|pro- va:|co- me'in se nol co-|no- sce'in me nol|cre-|de.|
w: cru- da io nel mo-|ri- re,|cru- da io nel mo-|ri- re, nel mo-|ri-|re.|
w: la glo- ria d'Ho- mi-|ci- dia,|la glo- ria d'H- mi-|ci- dia'in me d'a-|man-|te.|
V:2
 [EG]8 | [Gc]8 | [_EG]4 [CA]4 | G4 B4 | G8 | B8 | c4 A4 | =B8 | G4 c4 | B8 | B8 | B8 | G4 A4 | %13
 =B8 | G8 |] %15
V:3
 C,8 |"^b" C,8 | C,8 |"^b" G,,4 G,,4 | G,,8 | G,,8 | C,4 D,4 | G,,8 | G,4 _E,4 | _E,8 | B,,8 | %11
 B,,4 B,,4 | C,4 F,,4 | G,,8 | C,8 |] %15
V:4
 x8 | x8 | x8 | D4 D4 | D8 | D8 | E4 ^F4 | D8 | D4 G4 | G8 | F4 D4 | F8 | _E4 C4 | D8 | E8 |] %15

